X:1
T:Lovely Jamie
M:3/4
L:1/8
K:G
G-A| B3 AG-B|A-G E2 DB,| D2 E2 E2| E4G-A| B2 e2B-c| d2 d2e-d| B3 AG-A|\
 B4G-A| B2 e2 Bc| d2 d2e-d| B3 AG-A| B4G-A| B3 AG-B| AG E2 DB,| D2 E2 E2|\
 E4||
